X:4210
L:1/8
Q:1/4=120
M:4/4
K:Bb
"Bb" F>G F>=E F2 F2 | (d3 c) B2 z2 |"Eb" G>^F G>A B2 (A>G) |"Bb" F6 z2 | F>G F>=E F2 F2 | 
 (d3 c) B2 z2 |"C7" A2 B2 c>A G>A |"F" F6 z2 | c2 c2 c>B c>d |"F7" e4 c2 z2 |"Bb" d2 d2 d>c B>d | 
"F7" (c2 d2 e2) z2 |"Bb" d>e d>c B2 F2 |"Eb" A2 G4 z2 |"Bb/F" F>F =E>F"F7" G2 A2 |"Bb" B4 z2 || 
 B>c |"Bb" d4- d>e d>c | B4 z2 A>B |"F7" c4- c>B e>d | c4 z2 B>c |"Bb" d4- d>c (3BAB | 
"Eb" G4 z2 A>B |"Bb/F" F2 =EF"F7" G2 A2 |"Bb" B6 z2 |]

